X:1
T:O Land of God
T:O Land of God
T:Charles Hutchinson Gabriel
T:Eben Eugene Rexford, 1902
T:Public Domain Courtesy of the Cyber Hymnal™
T:Public Domain Courtesy of the Cyber Hymnal™
C:Charles Hutchinson Gabriel
Z:Public Domain
Z:Courtesy of the Cyber Hymnal™
%%score ( 1 2 ) ( 3 4 )
L:1/8
Q:1/4=83
M:3/4
K:F
V:1 treble 
V:2 treble 
V:3 bass 
V:4 bass 
V:1
 AG F | A3 C DF x | A3 A GA x | B3 D FE | C3 A GF | A3 C DF x | A3 A GA x | BF A2 G2 | F3 F EF | %9
w: 1.~In dreams I|see the heav’n- ly|land, With ver- dant|vales on ei- ther|hand; Bathed in the|sun- shine of a|day, As fair, as|sweet as those of|May. A day that|
w: 2.~Thro’ gates a-|jar my ea- ger|feet Go in to|tread the gold- en|street; And pro- phets,|priests, and kings I|see A grand and|good- ly com- pa-|ny, And in the|
w: 3.~Then comes a|low still voice to|me; “Wouldst thou be|of this com- pa-|ny Thou see- st|in thy dreams, and|sing The songs of|Heav’n be- fore the|King? Then live, and|
 B3 D FG | A3 F GA x | c3 B CB x | A3 F EF | B3 D FG | A3 F GA x | c3 B AG x | F3 || %17
w: ends not, and I|hear Glad voic- es|ring- ing far and|near With sweet- er|songs than earth can|know, The heav’n- ly|songs that haunt us|so.|
w: midst, a great white|throne I see, and|Him who sits there-|in; And oh, the|awe that comes to|me, When God’s face|in my dreams I|see.|
w: dare, and do for|God, And by and|by, earth’s jour- ney|trod, Thou shalt go|in be- yond the|gate And claim an|heir of God’s es-|tate.”|
"^Refrain" [Fc][Fc] [FA] | d3 z d[FA][Af] | e3 z cdf | e3 [Bd] [Ac][GB] | [FA]3 A B[Fc] | %22
w: |||||
w: O land of|God, so fair, so|bright! O land in|which there is no|night! I dream of|
w: |||||
 d3 [FG] [FA][EB] | [Fc]3"^riten." [Gc] [Fc][Ec] | [Fc][FB] [FA]2 [EG]2 | %25
w: |||
w: thee, and dream- ing,|pray That I may|wake in thee some|
w: |||
 [FA]3"^a tempo" [FA] [EB][Fc] | [Fd]3 [FG] [FA][EB] | !fermata![Fc][Gc] [Fc][Ec] [Fc][FB] | %28
w: |||
w: day; I dream of|thee, and dream- ing,|pray That I may wake in|
w: |||
 [FA]3 F [EG]<[EG] | [CF]3 |] %30
w: ||
w: thee some hap- py|day.|
w: ||
V:2
 x3 | x7 | x7 | x6 | x6 | x7 | x7 | x6 | x6 | x6 | x7 | x7 | x6 | x6 | x7 | x7 | x3 || x3 | %18
 (FF F2) x3 | (BB B2) B2 x | (BB B) x3 | x6 | (FF F) x3 | x6 | x6 | x6 | x6 | x6 | x3 F x2 | x3 |] %30
V:3
 CB, A, | C3 z A,B,_D | C3 z FE_E | D2 z B, DB, | A,6 | C3 z A,B,_D | C3 z FE_E | D_D C2 B,2 | %8
w: ~ ~ ~|~ ~ ~ ~|~ ~ ~ ~|~ ~ ~ ~|~|~ ~ ~ ~|~ ~ ~ ~|~ ~ ~ ~|
 A,3 z2 _E | (DD, F,)B, D_D | C3 z A,B,C | E3 z G,E,D | C3 z2 _E | (DD, F,)B, D_D | C3 z A,B,C | %15
w: ~ ~|~ * * ~ ~ ~|~ ~ ~ ~|~ ~ ~ ~|~ ~|~ * * ~ ~ ~|~ ~ ~ ~|
 E3 z DCB, | A,3 || [F,A,][F,A,] [F,C] | ([F,A,][F,A,] [F,A,]2) [F,C]2 x | %19
w: ~ ~ ~ ~|~|~ ~ ~|O * * land|
 [G,C][E,C] [C,C]2 [C,C]2 x | [G,C][E,C] [C,C]2 [C,C]2 | [F,C][F,C] [F,C] z2 [F,A,] | %22
w: of God, so fair,|so bright, O land|in which there is|
 ([B,,B,][B,,B,] [B,,B,])[B,D] [A,C][G,B,] | [F,A,]3 [E,B,] [F,A,][G,B,] | [A,C][B,D] C2 [C,C]2 | %25
w: no * * night, * *|||
 [F,C]3 [F,C] [G,C][A,C] | B,3 [B,,B,D] [A,,A,C][G,,G,B,] | %27
w: ||
 !fermata![F,,F,A,][E,,E,B,] [F,,F,A,][G,,G,B,] [A,,A,_E][B,,B,D] | [C,C]3 [C,A,] [C,B,]<[C,B,] | %29
w: ||
 [F,,F,A,]3 |] %30
w: |
V:4
 x3 | (F,,C, F,4) x | (F,,C, F,4) x | (B,,D, F,4) | (F,,C, F,)C B,A, | (F,,C, F,4) x | %6
 (F,,C, F,4) x | B,,2 C,4 | (F,C, F,,) x3 | B,,6 | (F,,C, F,4) x | (C,,G,, C,4) x | (F,,C, F,) x3 | %13
 B,,6 | (F,,C, F,4) x | (C,G,, C,,4) x | ([F,,F,]C, F,,) || x3 | x7 | x7 | x6 | x6 | x6 | x6 | %24
 x2 C2 x2 | x6 | B,3 x3 | x6 | x6 | x3 |] %30

